X:1
T:Title
%%score { ( 1 3 ) | ( 2 4 ) }
L:1/8
M:6/8
K:C
V:1 treble nm="Grand Piano"
V:3 treble 
V:2 bass 
V:4 bass 
V:1
 z3 z2[Q:1/4=92] [EG] | [Ec]2 [Ec] [Ec][EG][EA] | [FB]2 [FB] [FB]2 [FB] | B2 d A2 B | %4
[M:5/8] [Ec]-[Ec]- [Ec]3 |[M:1/8] [EG] |[M:3/4] z2 z c z2 | B2 B B2 B/c/ | d2 B [^FA]2 [FB] | G6 | %10
 dd d B2 A | [EG]3 [Ec]2 [GB] | [FA]2 [FA] [^Fd]2 [Fe] | [Gd]6 | [Ge][Ge] [Fd] [Ec]2 G | B3 A2 A | %16
 G2 G c2 [DB] |[M:5/8] [Ec]-[Ec]- [Ec]3 |[M:1/8] [Ec] |[M:3/4] d>G G G2 d | %20
[M:7/8] c2 [Ad] [^Ge]3 [Ed] |[M:3/4] [Ec]2 [_Bc][Ac]- [Ac]/[G=B]/A |[M:5/8] G2 d [Ec]2 |] %23
V:2
 z3 z2 [C,C] | [C,G,]2 [C,G,] [C,G,][C,G,][C,G,] | [D,G,]2 [D,G,] [D,G,]2 [D,G,] | %3
 [G,F]2 [G,B,F] [G,DF]2 [G,F] |[M:5/8][K:bass] [C,G,]-[C,G,]- [C,G,]3 |[M:1/8] [C,C] | %6
[M:3/4] [C,G,]2 [C,G,] [C,G,]2 [C,G,] | z2 z2 z [G,D] | [G,B,G]2 [G,DG][K:bass] [D,C]2 [D,D] | %9
 [G,B,]6 | [G,B,F][G,B,F] [G,B,F] [G,DF]2 [G,B,F] | [C,C]3 [C,G,]2 [E,C] | %12
 [F,C]2 [F,C] [D,C]2 [D,C] | [G,B,]6 | [C,C][C,C] [C,C] [C,G,]2 [E,C] | [F,CG]3 [F,CF]2 [F,CF] | %16
 [G,CE]2 [G,CE] [G,E]2 [G,,G,] |[M:5/8] [C,G,]-[C,G,]- [C,G,]3 |[M:1/8] [C,C] | %19
[M:3/4][K:treble] [G,B,F]>[G,B,F] [G,B,F] [G,B,F]2 [G,B,F] | %20
[M:7/8][K:bass] [A,CE]2 [F,A,] [E,B,]3 [^G,B,] | %21
[M:3/4] [A,C]2 [G,C][F,C]- [F,C]/[F,C]/[K:treble][F,CF] |[M:5/8] [G,CE]2 [G,F][K:bass] [C,G,]2 |] %23
V:3
 x6 | x6 | x6 | x6 |[M:5/8] x5 |[M:1/8] x |[M:3/4] [Ec]2 [Ec]E- [EG][EA] | x6 | x6 | x6 | x6 | x6 | %12
 x6 | x6 | x6 | x6 | x6 |[M:5/8] x5 |[M:1/8] x |[M:3/4] x6 |[M:7/8] x7 |[M:3/4] x6 |[M:5/8] x5 |] %23
V:4
 x6 | x6 | x6 | x6 |[M:5/8][K:bass] x5 |[M:1/8] x |[M:3/4] x6 | [D,G,D]2 [D,G,D] [G,D]2 z/ A,/ | %8
 x3[K:bass] x3 | x6 | x6 | x6 | x6 | x6 | x6 | x6 | x6 |[M:5/8] x5 |[M:1/8] x | %19
[M:3/4][K:treble] x6 |[M:7/8][K:bass] x7 |[M:3/4] x5[K:treble] x |[M:5/8] x3[K:bass] x2 |] %23

